dist/svgs/crypto-icons/icons/knc.svg

<svg width="360" height="512" xmlns="http://www.w3.org/2000/svg"><g fill="#000" fill-rule="nonzero"><path d="M153.45245 256L344.67781 365.629971C351.317579 369.466282 359.727954 364.597118 359.727954 356.924496L359.727954 154.927954C359.727954 147.255331 351.317579 142.386167 344.67781 146.222478L153.45245 256zM333.611527 99.0063401L206.570605 2.06570605C200.668588-2.36080692 192.258213.737752161 190.635159 7.96772334L144.304323 223.981556 332.578674 115.827089C338.775793 112.138329 339.365994 103.432853 333.611527 99.0063401zM206.570605 509.934294L333.759078 412.84611C339.513545 408.419597 338.923343 399.714121 332.726225 396.172911L144.304323 288.018444 190.782709 504.032277C192.110663 511.262248 200.668588 514.360807 206.570605 509.934294z"/><path d="M104.465706,256 L154.485303,23.3129683 C156.403458,14.1648415 145.927378,7.52507205 138.549856,13.2795389 L10.4760807,111.105476 C3.83631124,116.12219 2.84217094e-14,123.942363 2.84217094e-14,132.205187 L2.84217094e-14,380.089914 C2.84217094e-14,388.352738 3.83631124,396.172911 10.4760807,401.189625 L138.549856,498.868012 C145.927378,504.474928 156.403458,497.835159 154.485303,488.834582 L104.465706,256 Z"/></g></svg>

<svg xmlns="http://www.w3.org/2000/svg" viewBox="0 0 360 512"><path d="M153.452 256l191.226 109.63c6.64 3.836 15.05-1.033 15.05-8.706V154.928c0-7.673-8.41-12.542-15.05-8.706L153.452 256zm180.16-156.994L206.57 2.066c-5.902-4.427-14.313-1.328-15.936 5.902l-46.33 216.014 188.274-108.155c6.197-3.689 6.787-12.394 1.033-16.82zM206.57 509.934l127.188-97.088c5.755-4.426 5.164-13.132-1.033-16.673L144.304 288.018l46.479 216.014c1.328 7.23 9.886 10.329 15.788 5.902z"/><path d="M104.466 256l50.02-232.687c1.917-9.148-8.559-15.788-15.936-10.033L10.476 111.105C3.836 116.122 0 123.942 0 132.205V380.09c0 8.263 3.836 16.083 10.476 21.1l128.074 97.678c7.377 5.607 17.853-1.033 15.935-10.033L104.465 256z"/></svg>
